X:69
T:The Wrestling Match - Olver
C:Taken down from Jas. Olver, Launceston by H.Fl.Sh.
%%VWML:SBG-1-1-287-0
F:http://www.vwml.org/record/SBG/1/1/287
Z:Original Sibleius Transcription by Martin and Shan Graebe
L:1/8
M:2/4
I:linebreak $
K:F
z2 z A | c A F3/2 E/ | (E D2) D | B A B/ B/ B/ G/ | (F E2) C | D3/2 E/ F E | F3/2 A/ c A |$ 
B3/2 G/ F E | F2 z (A/c/) | B3/2 G/ F E | (D C2) E | F E D C | F A !fermata!c c | d3/2 G/ F E | 
F3 z |] 



